X:1
T:Rest By and By
T:Rest By and By
T:John Robson Sweney
T:May L. Clayton, 1886
T:Public Domain Courtesy of the Cyber Hymnal™
C:John Robson Sweney
Z:Public Domain
Z:Courtesy of the Cyber Hymnal™
%%score ( 1 2 ) ( 3 4 )
L:1/8
Q:1/4=78
M:6/8
K:D
V:1 treble 
V:2 treble 
V:3 bass 
V:4 bass 
V:1
 ([DF]/[EG]/) | [FA]>[^E^G][FA] [Fd][=G=e][Fd] | [FA]3 [DF]2 [Fd] | [Ec][CE][DF] ([EG][GB])[FA] | %4
w: 1.~I’ve *|been to the field with the|reap- ers, And|there I have gleaned * all|
w: 2.~O *|sweet was the song of the|reap- ers, And|bright was their gold- * en|
w: 3.~And *|still by the side of the|reap- ers I|ask that my place * may|
 [DF]3- [DF]2 [DF]/[EG]/ | ([FA]>[^E^G])[FA] [Fd]2 [Gd]/[Ac]/ | (B>^A)[GB] [Ge]2 [Ge]/[Gd]/ | %7
w: day; * But my|task * was light, and my|heart * was glad, For I|
w: grain. * As it|waved~in * the light of the|mid- * day sun, And it|
w: be, * Till the|sun~shall * be set, and my|work * is done, And the|
 [Ac]2 ([Ac]/[Ac]/) ([Bd][Ac])[^GB] | ([GA-]3 [GA]3) ||"^Refrain" [FA]>[GB][FA] [DF]3 | %10
w: heard the * Mas- * ter|say: *||
w: smiled o’er~the * har- * vest|plain. *|Rest by and by,|
w: Mas- ter * calls * me|home. *||
 [FA]>[GB][FA] [Fd]3 | [Ec]>[DB][CA] ([EG][^DF])[EG] | %12
w: ||
w: rest by and by,|Rest in the field * a-|
w: ||
 ([GB]3 [FA]2) [DF]/[EG]<[FA][^E^G]/[FA] [Fd]2 [Ad]/[Ac]/ | [GB]>[G^A][GB] [Ge]2 [Gd]/[GB]/ | %14
w: ||
w: bove; * There is rest by and by, Hap- py|rest by and by, And a|
w: ||
 [FA]>[DF][Fd] (cB)[Gc] | [Fd]3- [Fd]2 |] %16
w: ||
w: crown of e- ter- * nal|love. *|
w: ||
V:2
 x | x6 | x6 | x6 | x6 | x6 | G2 x4 | x6 | x6 || x6 | x6 | x6 | x12 | x6 | x3 G2 x | x5 |] %16
V:3
 [D,A,] | [D,D]>[D,D][D,D] [D,A,][D,A,][D,A,] | [D,D]3 [D,A,]2 [D,A,] | %3
 [A,,A,][A,,A,][A,,A,] [A,,A,]2 [A,,A,] | [D,A,]3- [D,A,]2 [D,A,]/[D,A,]/ | %5
 ([D,D]>[D,D])[D,D] [D,A,]2 [F,D]/[F,D]/ | (D>C)[G,D] [G,B,]2 [G,B,]/[G,B,]/ | %7
 [E,E]2 ([E,E]/[E,E]/) [E,E]2 [E,D] | [A,C]6 || [D,D]>[D,D][D,D] [D,A,]3 | %10
 [D,D]>[D,D][D,D] [D,A,]3 | A,>A,A, [A,,A,]2 [A,,C] | %12
 [D,D]3- [D,D]2 [D,A,]/[D,A,]<[D,D][D,D]/[D,D] [D,A,]2 [F,D]/[F,D]/ | %13
 [G,D]>[G,C][G,D] [G,B,]2 [G,B,]/[G,D]/ | [A,D]>A,A, [A,,A,]2 [A,,A,] | [D,A,]3- [D,A,]2 |] %16
V:4
 x | x6 | x6 | x6 | x6 | x6 | G,2 x4 | x6 | x6 || x6 | x6 | A,>A,A, x3 | x12 | x6 | x3/2 A,/A, x3 | %15
 x5 |] %16

